X:695
T:Calum Beg
D:Foundry Bar Band
Z:Nigel Gatherer
M:4/4
L:1/8
K:G
E2 | D3 E G2 GA | BABd e2 d2 | eA A2 BA A2 | BABd  e2 d2 |
     dgfg edBd  | edeg e2 dB | G2 G2 A2 GA | B2 G2 G2   :|
d2 | g2 g2 edBd | edeg e2 d2 | eA A2 BA A2 | BABd  e2 d2 |
     dgfg edBd  | edeg e2 dB | G2 G2 A2 GA | B2 G2 G2   :|
<end>
<start>
